X:1
T:AIN'T NO SUNSHINE WHEN SHE'S GONE
T:AIN'T NO SUNSHINE WHEN SHE'S GONE
T:Lyrics & music: Billy Withers
T:Arr.: Gitika Partington
C:Letra y música: Billy Withers
Z:Arr.: Gitika Partington
%%score [ 1 2 3 4 ]
L:1/8
Q:1/4=80
M:4/4
K:C
V:1 treble nm="S" snm="S"
V:2 treble nm="C" snm="C"
V:3 treble-8 nm="T" snm="T"
V:4 bass nm="B" snm="B"
V:1
 z8 |: z F z F ECA,C | D z z2 z4 | z F z F ECA,C | D8 | E4 z E z _E | D8 | z F z F ECA,C |1 %8
w: |Ain't no sun- shine when she's|gone|it's not warm when she's a-|away|gone gone too|long|an- y time she goes a-|
w: |Won- der this time where she's|gone|won- der if she's gone to|stay|house ain't no|home||
 D2 z2 z4 :|2 D2 z2 z4 | F2 F2 z A z G | G2 G2 z A z c || F2 F2 z A z G | G2 G2 z4 | %14
w: way|way|I know know know|I know know know|I know know know|I know|
w: ||||||
 F2 F2 z A z G | G2 G2 z A z c | F2 F2 z A z G | G2 G2 z4 |: F2 F2 z A z G | G2 A2 z A z c | %20
w: I know know know|I know know know|I know know know|I know|I know know know|I know know know|
w: ||||||
 F2 F2 z A z G | G2 G2 z4 :|O z8 | z F z F ECA,C | D z z2 z4 | z F z F ECA,C | D8 | E4 z E z _E | %28
w: I know know know|I know||won- der this time where she's|gone|won- der if she's gone to|stay|house ain't no|
w: ||||||||
 D8 | z F z F ECA,C | D2 z2 z4 | z F z F ECA,C | D2 z2 z4 | F2 F2 z A z G | G2 A2 z A z c | %35
w: home|an- y time she goes a-|way|an- y time she goes a-|way|I know know know|I know know know|
w: |||||||
 F2 F2 z A z G | G2 G2 z4 | F2 F2 z A z G | G2 G2 z A z c | F2 F2 z A z G | G2 G2 z4 | %41
w: I know know know|I know|I know know know|I know know know|I know know know|I know|
w: ||||||
 F2 F2 z A z G | G2 G2 z A z c | F2 F2 z A z G | F2 F2 z4 |: z F z F ECA,C | D z z2 z4 :| %47
w: I know know know|I know know know|I know know know|I know|ain't no sun- shine when she's|gone|
w: ||||||
 z F z F ECA,C | D z z2 z4 | z F z F ECA,C | D8 |] %51
w: ain't no sun- shine when she's|gone|ain't no sun- shine when she's|gone.|
w: ||||
V:2
 z2 A,/CD/- DFEC |: D6 z2 | z2 A,C DF EC/D/- | D6 z2 | z2 D/DF/- FA- A/G/A/G/- | %5
w: Ain't no sun _ shine when she's|gone|it's not warm when she's a- way|_|Ain't no sun _ shine _ when she's gone|
w: Won- der this _ time where she's|gone|won- der if she's gone to stay|_||
 G2 z G/F/- FD C(D/C/) | D2 F/G/F- F2 D/CD/ | D4 z4 |1 z2 A,C/D/- DFEC :|2 z8 | D2 D2 z D z D | %11
w: _ she's al _ ways gone to _|long an- y time _ she goes a-|way|won- der this _ time where she's||I know know know|
w: * this house _ just ain't no _|home * * * * * * *|||||
 D2 D2 z D z D || D2 D2 z D z D | D2 D2 z4 | D2 D2 z D z D | D2 D2 z D z D | D2 D2 z D z D | %17
w: I know know know|I know know know|I know|I know know know|I know know know|I know know know|
w: ||||||
 D2 D2 z4 |: C/DC/ DC/D/- D/C/D C2 | C/DC/ DC/D/- D/C/D F2 | C/DC/ DC/D/- D/C/D C2 | %21
w: I know|I know I know I know _ I know know|I know I know I know _ I know know|I know I know I know _ I know know|
w: ||||
 C/DC/ DC/D/- D z z2 :| z2 A,/CD/- DFEC | D6 z2 | z2 A,C DF EC/D/- | D6 z2 | z2 D<D FA G/G/(A/G/- | %27
w: I know I know I know _|won- der this _ time where she's|gone|won- der is she's gone to stay|_|ain't no sun- shine when she's gone _|
w: ||||||
 G2) z G/F/- FD C(D/C/) | D2 F/G/F- F2 D/CD/ | D4 z4 | z2 F/G/F- F2 D/CD/ | D4 z4 | %32
w: _ this house _ just ain't no _|home an- y time _ she goes a-|way|an- y time _ she goes a-|way|
w: |||||
 z2 F/G/F- F2 D/CD/ | D4 z4 | z2 F/G/F- F2 D/CD/ | D4 z4 | z2 F/G/F- F2 D/CD/ | D4 z4 | %38
w: an- y time _ she goes a-|way|an- y time _ she goes a-|way|an- y time _ she goes a-|way|
w: ||||||
 z2 F/G/F- F2 D/CD/ | D4 z4 | z2 F/G/F- F2 D/CD/ | D4 z4 | z2 F/G/F- F2 D/CD/ | D4 z4 | %44
w: an- y time _ she goes a-|way|an- y time _ she goes a-|way|an- y time _ she goes a-|way|
w: ||||||
 z2 F/G/F- F2 D/CD/ |: D4 z4 | z2 F/G/F- F2 D/CD/ :| D4 z4 | z2 F/G/F- F2 D/CD/ | D8- | D8 |] %51
w: an- y time _ she goes a-|way|an- y time _ she goes a-|way|an- y time _ she goes a-|way.|_|
w: |||||||
V:3
 z8 |: z A z A GGEG | A2 z2 z4 | z A z A GGEG | A8 | c4 z c z B | _B8 | z A z A GGEG |1 %8
w: |Ain't no sun- shine when she's|gone|it's not warm when she's a-|away|gone gone too|long|an- y time she goes a-|
w: |Won- der this time where she's|gone|won- der if she's gone to|stay|house ain't no|home||
 A2 z2 z4 :|2 A2 z2 z4 | A2 A2 z A z A | A2 A2 z A z A || c2 c2 z c z c | c2 c2 z4 | %14
w: way|way|I know know know|I know know know|I know know know|I know|
w: ||||||
 A2 A2 z A z A | A2 A2 z A z A | c2 c2 z c z c | c2 c2 z4 |: A2 A2 z A z A | A2 A2 z A z A | %20
w: I know know know|I know know know|I know know know|I know|I know know know|I know know know|
w: ||||||
 c2 c2 z c z c | c2 c2 z4 :| z8 | z A z A GGEG | A2 z2 z4 | z A z A GGEG | A8 | c4 z c z B | _B8 | %29
w: I know know know|I know||won- der this time where she's|gone|won- der if she's gone to|stay|house ain't no|home|
w: |||||||||
 z A z A GGEA | A2 z2 z4 | z A z A GGEA | A2 z2 z4 | A2 A2 z A z A | A2 A2 z A z A | %35
w: an- y time she goes a-|way|an- y time she goes a-|way|I know know know|I know know know|
w: ||||||
 c2 c2 z c z c | c2 c2 z4 | c/dc/ dc/d/- d/c/d c2 | c/dc/ dc/d/- d/c/d f2 | c/dc/ dc/d/- d/c/d c2 | %40
w: I know know know|I know|I know I know I know _ I know know|I know I know I know _ I know know|I know I know I know _ I know know|
w: |||||
 c/dc/ dc/d/- d z z2 | c/dc/ dc/d/- d/c/d c2 | c/dc/ dc/d/- d/c/d f2 | c/dc/ dc/d/- d/c/d c2 | %44
w: I know I know I know _|I know I know I know _ I know know|I know I know I know _ I know know|I know I know I know _ I know know|
w: ||||
 c/dc/ dc/d/- d z z2 |: z A z A GGEG | A2 z2 z4 :| z A z A GGEG | A2 z2 z4 | z A z A GGEG | A8 |] %51
w: I know I know I know _|ain't no sun- shine when she's|gone|ain't no sun- shine when she's|gone|ain't no sun- shine when she's|gone.|
w: |||||||
V:4
 z8 |: D,2 D,2 A,,A,,C,E, | D,2 z2 z4 | D,2 D,2 A,,A,,C,E, | D,8 | A,4 z A, z _A, | G,4 z4 | %7
w: |Ain't no sun- shine when she's|gone|it's not warm when she's a|away|gone gone too|long|
w: |Won- der this time where she's|gone|won- der if she's gone to|stay|house ain't no|home|
 D,2 D,2 A,,A,,C,C, |1 D,2 z6 :|2 D,2 z2 z4 | D,2 D,2 z D, z D, | F,2 F,2 z F, z F, || %12
w: a- ny time she goes a-|way|way|I know know know|I know know know|
w: |||||
 _B,,2 B,,2 z B,, z B,, | A,,2 A,,2 z4 | D,2 D,2 z D, z D, | F,2 F,2 z F, z F, | %16
w: I know know know|I know|I know know know|I know know know|
w: ||||
 _B,,2 B,,2 z B,, z B,, | A,,2 A,,2 z4 |: D,2 D,2 z D, z D, | F,2 F,2 z F, z F, | %20
w: I know know know|I know|I know know know|I know know know|
w: ||||
 _B,,2 B,,2 z B,, z B,, | A,,2 A,,2 z4 :| z8 | D,2 D,2 A,,A,,C,E, | D,2 z2 z4 | %25
w: I know know know|I know||won- der this time where she's|gone|
w: |||||
 D,2 D,2 A,,A,,C,E, | D,8 | A,4 z A, z _A, | G,4 z4 | D,2 D,2 A,,A,,C,C, | D,2 z2 z4 | %31
w: won- der if she's gone to|stay|house ain't no|home|a- ny time she goes a-|way|
w: ||||||
 D,2 D,2 A,,A,,C,C, | D,2 z2 z4 | D,2 D,2 z D, z D, | F,2 F,2 z F, z F, | _B,,2 B,,2 z B,, z B,, | %36
w: a- ny time she goes a-|way|I know know know|I know know know|I know know know|
w: |||||
 A,,2 A,,2 z4 | D,2 D,2 z D, z E, | F,2 F,2 z F, z F, | _B,,2 B,,2 z B,, z B,, | A,,2 A,,2 z4 | %41
w: I know|I know know know|I know know know|I know know know|I know|
w: |||||
 D,2 D,2 A,,A,,C,E, | D,2 z2 z4 | D,2 D,2 A,,A,,C,E, | D,2 z2 z4 |: D,2 D,2 A,,A,,C,E, | %46
w: ain't no sun- shine when she's|gone|ain't no sun- shine when she's|gone|ain't no sun- shine when she's|
w: |||||
 D,2 z2 z4 :| D,2 D,2 A,,A,,C,E, | D,2 z2 z4 | D,2 D,2 A,,A,,C,E, | D,2 z2 z4 |] %51
w: gone|ain't no sun- shine when she's|gone|ain't no sun- shine when she's|gone.|
w: |||||

